X:42
T:Fairies Dance,The.2voices. RH.042
T:Largo’s Fairy Dance,aka. RH.042
R:reel
C:Nathaniel Gow
S:Rev.R.Harrison’s MS,c1815,Cumbria
O:England
A:Temple Sowerby,Cumbria
Z:vmp.Simon Wilson. Review PJH, 2008.
M:C|
L:1/8
Q:1/2=100
K:D
[V:1] de|:f2f>d f2f>d|f2f>d c>Aec|f2f>d gfed|c>AB>c d2d2:|
[V:2] z2|:d2d2 d2d2|d2d2 A2A2|d2d2 ed AF|A>FG>A F2F2:|
%
[V:1]|:a2a>f b2b>a|g>fg>e a2a>g|f2f>d B2g>e|c>AB>c d2d2:|
[V:2]|:f2f>d g2g>f|e>de>c f2f>e|d2d>A F2B2|A>FG>A F2F2:|

